symbols-de/shields/motorway_10x3_z16.svg

<?xml version="1.0" encoding="UTF-8" standalone="no"?>
<svg
   xmlns:dc="http://purl.org/dc/elements/1.1/"
   xmlns:cc="http://creativecommons.org/ns#"
   xmlns:rdf="http://www.w3.org/1999/02/22-rdf-syntax-ns#"
   xmlns:svg="http://www.w3.org/2000/svg"
   xmlns="http://www.w3.org/2000/svg"
   xmlns:sodipodi="http://sodipodi.sourceforge.net/DTD/sodipodi-0.dtd"
   xmlns:inkscape="http://www.inkscape.org/namespaces/inkscape"
   width="100%"
   height="100%"
   viewBox="0 0 74.0 36.0"
   id="svg2"
   version="1.1"
   inkscape:version="0.91 r13725"
   sodipodi:docname="autobahn_10x3_z16.svg">
  <metadata
     id="metadata9">
    <rdf:RDF>
      <cc:Work
         rdf:about="">
        <dc:format>image/svg+xml</dc:format>
        <dc:type
           rdf:resource="http://purl.org/dc/dcmitype/StillImage" />
        <dc:title></dc:title>
      </cc:Work>
    </rdf:RDF>
  </metadata>
  <defs
     id="defs7" />
  <sodipodi:namedview
     pagecolor="#ffffff"
     bordercolor="#666666"
     borderopacity="1"
     objecttolerance="10"
     gridtolerance="10"
     guidetolerance="10"
     inkscape:pageopacity="0"
     inkscape:pageshadow="2"
     inkscape:window-width="1101"
     inkscape:window-height="722"
     id="namedview5"
     showgrid="false"
     inkscape:zoom="4.7702703"
     inkscape:cx="37"
     inkscape:cy="18.104816"
     inkscape:window-x="186"
     inkscape:window-y="170"
     inkscape:window-maximized="0"
     inkscape:current-layer="svg2" />
  <path
     style="fill:#365eaf;fill-opacity:1;stroke:#0528a2;stroke-width:0.99999994;stroke-miterlimit:4;stroke-dasharray:none;stroke-opacity:1"
     d="m 36.999996,0.50000003 c -0.523295,0 -0.78418,0.0036 -0.78418,0.01282 L 1.679012,2.448244 C 0.89406597,2.541054 0.49999997,2.681335 0.49999997,2.866945 l 0,30.26611 c 0,0.18561 0.394066,0.325896 1.17901203,0.418701 l 34.536804,1.935424 c 0,0.0093 0.26089,0.01282 0.78418,0.01282 0.523297,0 0.784179,-0.0035 0.784179,-0.01282 l 34.53681,-1.935425 c 0.784946,-0.0928 1.006931,-0.24562 1.179015,-0.418701 0,-16.253565 0,-15.906181 0,-30.26611 0,-0.18561 -0.394069,-0.325899 -1.179015,-0.418701 L 37.784175,0.51281703 c 0,-0.0093 -0.26089,-0.01282 -0.784179,-0.01282 z"
     id="path6"
     inkscape:connector-curvature="0"
     sodipodi:nodetypes="sccccccsccccccs" />
</svg>

<?xml version="1.0" encoding="UTF-8"?>
<svg xmlns="http://www.w3.org/2000/svg" xmlns:xlink="http://www.w3.org/1999/xlink" width="70pt" height="48pt" viewBox="0 0 70 48" version="1.1">
<g id="surface1">
<path style="fill-rule:nonzero;fill:rgb(21.176471%,36.862745%,68.627451%);fill-opacity:1;stroke-width:1;stroke-linecap:butt;stroke-linejoin:miter;stroke:rgb(1.960784%,15.686275%,63.529412%);stroke-opacity:1;stroke-miterlimit:4;" d="M 37 0.500977 C 36.475558 0.500977 36.215402 0.503906 36.215402 0.512695 L 1.680692 2.449219 C 0.896094 2.540039 0.499665 2.680664 0.499665 2.868164 L 0.499665 33.131836 C 0.499665 33.319336 0.896094 33.459961 1.680692 33.550781 L 36.215402 35.487305 C 36.215402 35.496094 36.475558 35.499023 37 35.499023 C 37.524442 35.499023 37.784598 35.496094 37.784598 35.487305 L 72.319308 33.550781 C 73.103906 33.459961 73.326897 33.304688 73.500335 33.131836 C 73.500335 16.880859 73.500335 17.226562 73.500335 2.868164 C 73.500335 2.680664 73.103906 2.540039 72.319308 2.449219 L 37.784598 0.512695 C 37.784598 0.503906 37.524442 0.500977 37 0.500977 Z M 37 0.500977 " transform="matrix(0.945946,0,0,1.333333,0,0)"/>
</g>
</svg>
